icons/svg/airplane-takeoff.svg

<svg xmlns="http://www.w3.org/2000/svg" version="1.1" baseProfile="full" width="24" height="24" viewBox="0 0 24.00 24.00" xml:space="preserve"><defs><path id="a" d="M0 0h24v24H0z"/></defs><g clip-path="url(#a)"><path fill="#000" fill-opacity="1" stroke-width="1.333" stroke-linejoin="miter" d="M2.5 19h19v2h-19v-2zm19.57-9.36c-.21-.8-1.04-1.28-1.84-1.06L14.92 10l-6.9-6.43-1.93.51 4.14 7.17-4.97 1.33-1.97-1.54-1.45.39 1.82 3.16.77 1.33 1.6-.43 5.31-1.42 4.35-1.16L21 11.49c.81-.23 1.28-1.05 1.07-1.85z"/></g><g><defs><path id="b" d="M0 0h24v24H0z"/></defs></g></svg>

﻿<?xml version="1.0" encoding="utf-8"?>
<!DOCTYPE svg PUBLIC "-//W3C//DTD SVG 1.1//EN" "http://www.w3.org/Graphics/SVG/1.1/DTD/svg11.dtd">
<svg xmlns="http://www.w3.org/2000/svg" xmlns:xlink="http://www.w3.org/1999/xlink" version="1.1" baseProfile="full" width="24" height="24" viewBox="0 0 24.00 24.00" enable-background="new 0 0 24.00 24.00" xml:space="preserve">
	<g>
		<defs>
			<rect id="SVG_CLIPPER1_" x="1.27157e-006" y="0" width="24" height="24"/>
		</defs>
		<g clip-path="url(#SVG_CLIPPER1_)">
			<path fill="#000000" fill-opacity="1" stroke-width="1.33333" stroke-linejoin="miter" d="M 2.5,19L 21.5,19L 21.5,21L 2.5,21L 2.5,19 Z M 22.07,9.64C 21.86,8.84 21.03,8.36 20.23,8.58L 14.92,10L 8.02,3.57L 6.09,4.08L 10.23,11.25L 5.26,12.58L 3.29,11.04L 1.84,11.43L 3.66,14.59L 4.43,15.92L 6.03,15.49L 11.34,14.07L 15.69,12.91L 21,11.49C 21.81,11.26 22.28,10.44 22.07,9.64 Z "/>
		</g>
	</g>
	<g>
		<defs>
			<rect id="SVG_CLIPPER2_" x="1.27157e-006" y="0" width="24" height="24"/>
		</defs>
		<g clip-path="url(#SVG_CLIPPER2_)"/>
	</g>
</svg>
